src/icons/rmb.svg

<?xml version="1.0" encoding="UTF-8"?>
<!DOCTYPE svg  PUBLIC '-//W3C//DTD SVG 1.1//EN'  'http://www.w3.org/Graphics/SVG/1.1/DTD/svg11.dtd'>
<svg version="1.1" viewBox="0 0 640 640" xmlns="http://www.w3.org/2000/svg" xmlns:xlink="http://www.w3.org/1999/xlink">
<defs>
<path id="a" d="m313.25 276.99c-14.88 0-26.94-12.06-26.94-26.94v-46.32c0-14.88 12.06-26.94 26.94-26.94s26.94 12.06 26.94 26.94v46.32c-8.04 17.96-17.02 26.94-26.94 26.94z"/>
<path id="d" d="m354.42 195.25v64.23c0 15.13-9.91 28.14-24.16 34.02v34.53h138.96v-115.97c0-65.68-55.02-118.93-122.89-118.93h-16.07v68.1c16.11 12.59 24.16 23.93 24.16 34.02z"/>
<clipPath id="e">
<use xlink:href="#d"/>
</clipPath>
<path id="c" d="m157.28 427.94c0 65.68 55.02 118.93 122.88 118.93h66.17c67.87 0 122.89-53.25 122.89-118.93v-89.98h-311.94v89.98z"/>
<path id="b" d="m296.23 293.5c-14.24-5.88-24.15-18.89-24.15-34.02v-64.23c0-15.13 9.91-28.14 24.15-34.02v-68.1h-16.07c-67.86 0-122.88 53.25-122.88 118.93v115.97h138.95v-34.53z"/>
</defs>
<use fill="#020202" xlink:href="#a"/>
<use fill-opacity="0" stroke="#000000" stroke-opacity="0" xlink:href="#a"/>
<g clip-path="url(#e)">
<use fill-opacity="0" stroke="#000000" stroke-width="26" xlink:href="#d"/>
</g>
<use fill="#020202" xlink:href="#c"/>
<use fill-opacity="0" stroke="#000000" stroke-opacity="0" xlink:href="#c"/>
<use fill="#020202" xlink:href="#b"/>
<use fill-opacity="0" stroke="#000000" stroke-opacity="0" xlink:href="#b"/>
</svg>

<?xml version="1.0" encoding="UTF-8" standalone="no"?>
<!DOCTYPE svg PUBLIC "-//W3C//DTD SVG 1.1//EN" "http://www.w3.org/Graphics/SVG/1.1/DTD/svg11.dtd">
<svg version="1.1" xmlns="http://www.w3.org/2000/svg" xmlns:xlink="http://www.w3.org/1999/xlink" preserveAspectRatio="xMidYMid meet" viewBox="0 0 640 640" width="640" height="640"><defs><path d="M313.25 276.99C313.25 276.99 313.25 276.99 313.25 276.99C298.37 276.99 286.31 264.93 286.31 250.05C286.31 245.42 286.31 208.36 286.31 203.73C286.31 188.85 298.37 176.79 313.25 176.79C313.25 176.79 313.25 176.79 313.25 176.79C328.13 176.79 340.19 188.85 340.19 203.73C340.19 206.82 340.19 222.26 340.19 250.05C332.15 268.01 323.17 276.99 313.25 276.99Z" id="bwtT01FaN"></path><path d="M354.42 195.25C354.42 201.67 354.42 253.06 354.42 259.48C354.42 274.61 344.51 287.62 330.26 293.5C330.26 295.8 330.26 307.31 330.26 328.03L469.22 328.03C469.22 258.45 469.22 219.79 469.22 212.06C469.22 146.38 414.2 93.13 346.33 93.13C345.26 93.13 339.91 93.13 330.26 93.13L330.26 161.23C346.37 173.82 354.42 185.16 354.42 195.25Z" id="a1ALqApg4B"></path><clipPath id="clipbywTQrek4"><use xlink:href="#a1ALqApg4B" opacity="1"></use></clipPath><path d="M157.28 427.94C157.28 493.62 212.3 546.87 280.16 546.87C286.78 546.87 339.72 546.87 346.33 546.87C414.2 546.87 469.22 493.62 469.22 427.94C469.22 421.94 469.22 391.95 469.22 337.96L157.28 337.96C157.28 391.95 157.28 421.94 157.28 427.94Z" id="aGiF88xvk"></path><path d="M296.23 293.5C281.99 287.62 272.08 274.61 272.08 259.48C272.08 253.06 272.08 201.67 272.08 195.25C272.08 180.12 281.99 167.11 296.23 161.23C296.23 156.69 296.23 133.99 296.23 93.13C286.59 93.13 281.24 93.13 280.16 93.13C212.3 93.13 157.28 146.38 157.28 212.06C157.28 219.79 157.28 258.45 157.28 328.03L296.23 328.03C296.23 307.31 296.23 295.8 296.23 293.5Z" id="acQhG8yZH"></path></defs><g><g><g><use xlink:href="#bwtT01FaN" opacity="1" fill="#020202" fill-opacity="1"></use><g><use xlink:href="#bwtT01FaN" opacity="1" fill-opacity="0" stroke="#000000" stroke-width="1" stroke-opacity="0"></use></g></g><g><g clip-path="url(#clipbywTQrek4)"><use xlink:href="#a1ALqApg4B" opacity="1" fill-opacity="0" stroke="#000000" stroke-width="26" stroke-opacity="1"></use></g></g><g><use xlink:href="#aGiF88xvk" opacity="1" fill="#020202" fill-opacity="1"></use><g><use xlink:href="#aGiF88xvk" opacity="1" fill-opacity="0" stroke="#000000" stroke-width="1" stroke-opacity="0"></use></g></g><g><use xlink:href="#acQhG8yZH" opacity="1" fill="#020202" fill-opacity="1"></use><g><use xlink:href="#acQhG8yZH" opacity="1" fill-opacity="0" stroke="#000000" stroke-width="1" stroke-opacity="0"></use></g></g></g></g></svg>
